common/src/main/resources/icons/plugins/javascript/JavaScript_debug_configuration.svg

<!--
  - The MIT License (MIT)
  -
  - Copyright (c) 2015-2024 Elior "Mallowigi" Boukhobza
  -
  - Permission is hereby granted, free of charge, to any person obtaining a copy
  - of this software and associated documentation files (the "Software"), to deal
  - in the Software without restriction, including without limitation the rights
  - to use, copy, modify, merge, publish, distribute, sublicense, and/or sell
  - copies of the Software, and to permit persons to whom the Software is
  - furnished to do so, subject to the following conditions:
  -
  - The above copyright notice and this permission notice shall be included in all
  - copies or substantial portions of the Software.
  -
  - THE SOFTWARE IS PROVIDED "AS IS", WITHOUT WARRANTY OF ANY KIND, EXPRESS OR
  - IMPLIED, INCLUDING BUT NOT LIMITED TO THE WARRANTIES OF MERCHANTABILITY,
  - FITNESS FOR A PARTICULAR PURPOSE AND NONINFRINGEMENT. IN NO EVENT SHALL THE
  - AUTHORS OR COPYRIGHT HOLDERS BE LIABLE FOR ANY CLAIM, DAMAGES OR OTHER
  - LIABILITY, WHETHER IN AN ACTION OF CONTRACT, TORT OR OTHERWISE, ARISING FROM,
  - OUT OF OR IN CONNECTION WITH THE SOFTWARE OR THE USE OR OTHER DEALINGS IN THE
  - SOFTWARE.
  -->


<svg data-big="true" xmlns="http://www.w3.org/2000/svg" version="1.1" width="16px" height="16px" fill="#4DD0E1"
     viewBox="0 0 24 24">
  <path
    d="M4,1C2.89,1 2,1.89 2,3V7C2,8.11 2.89,9 4,9H1V11H13V9H10C11.11,9 12,8.11 12,7V3C12,1.89 11.11,1 10,1H4M4,3H10V7H4V3M3,13V18L3,20H10V18H5V13H3M14,13C12.89,13 12,13.89 12,15V19C12,20.11 12.89,21 14,21H11V23H23V21H20C21.11,21 22,20.11 22,19V15C22,13.89 21.11,13 20,13H14M14,15H20V19H14V15Z"/>
  <path
    d="m19.262 15.092h-3.0629v-1.5314h3.0629m0 4.5943h-3.0629v-1.5314h3.0629m4.5943-4.5943h-2.1517c-.34457-.59726-.81931-1.1103-1.3936-1.5008l1.2481-1.2481-1.0797-1.0797-1.6616 1.6616c-.35223-.084234-.70446-.13017-1.0873-.13017-.38286 0-.73508.045939-1.0797.13017l-1.6693-1.6616-1.0797 1.0797 1.2405 1.2481c-.56663.39051-1.0414.90354-1.3859 1.5008h-2.1517v1.5314h1.6003c-.03829.25268-.06892.50537-.06892.76571v.76571h-1.5314v1.5314h1.5314v.76571c0 .26034.03062.51303.06892.76571h-1.6003v1.5314h2.1517c.79634 1.3706 2.2742 2.2971 3.9741 2.2971s3.1777-.92651 3.9741-2.2971h2.1517v-1.5314h-1.6003c.03829-.25268.06891-.50537.06891-.76571v-.76571h1.5314v-1.5314h-1.5314v-.76571c0-.26034-.03063-.51303-.06891-.76571h1.6003z"
    fill="#F48FB1"/>
</svg>

<svg xmlns="http://www.w3.org/2000/svg" width="16" height="16" fill="#4DD0E1" data-big="true" viewBox="0 0 24 24"><path d="M4 1c-1.11 0-2 .89-2 2v4c0 1.11.89 2 2 2H1v2h12V9h-3c1.11 0 2-.89 2-2V3c0-1.11-.89-2-2-2zm0 2h6v4H4zM3 13v7h7v-2H5v-5zm11 0c-1.11 0-2 .89-2 2v4c0 1.11.89 2 2 2h-3v2h12v-2h-3c1.11 0 2-.89 2-2v-4c0-1.11-.89-2-2-2zm0 2h6v4h-6z"/><path fill="#F48FB1" d="M19.262 15.092h-3.063v-1.531h3.063m0 4.594h-3.063v-1.531h3.063m4.594-4.595h-2.151a4.6 4.6 0 0 0-1.394-1.5l1.248-1.249-1.08-1.08-1.661 1.662a4.6 4.6 0 0 0-2.167 0l-1.67-1.661-1.08 1.08 1.241 1.247a4.64 4.64 0 0 0-1.386 1.501h-2.151v1.532h1.6a5 5 0 0 0-.069.765v.766h-1.531v1.531h1.531v.766c0 .26.03.513.069.766h-1.6v1.531h2.151c.797 1.37 2.275 2.297 3.975 2.297s3.177-.926 3.974-2.297h2.151v-1.531h-1.6c.038-.253.069-.506.069-.766v-.766h1.531v-1.531h-1.531v-.766c0-.26-.03-.513-.069-.765h1.6z"/></svg>
